app/assets/images/icons/piggy-bank-solid.svg

<?xml version="1.0" encoding="UTF-8" standalone="no"?>
<svg width="30px" height="30px" viewBox="0 0 30 30" version="1.1" xmlns="http://www.w3.org/2000/svg" xmlns:xlink="http://www.w3.org/1999/xlink">
    <!-- Generator: Sketch 3.7.2 (28276) - http://www.bohemiancoding.com/sketch -->
    <title>piggy-bank-solid</title>
    <desc>Created with Sketch.</desc>
    <defs></defs>
    <g id="Icons" stroke="none" stroke-width="1" fill="none" fill-rule="evenodd">
        <g id="piggy-bank-solid" fill="#050505">
            <path d="M17.0202274,26.8739709 C16.3618781,26.9569373 15.6871653,27 15,27 C14.6527715,27 14.3087226,26.9890046 13.9683578,26.9674215 C13.7373111,28.679791 12.2692848,30 10.5,30 C8.56700338,30 7,28.4323196 7,26.4945942 L7,24.7769759 C4.27662052,23.0573513 2.42364205,20.4799805 2.06393634,17.5479522 L0.799845994,16.5998845 C0.358103249,16.2685774 0,15.5561351 0,15 C0,14.4477152 0.395154817,14.2147555 0.882796988,14.4736289 C0.882796988,14.4736289 1.65885349,14.9147133 2,15 C2.03902357,15.0097559 2.0819425,15.0177618 2.12738528,15.0242881 C3.01555979,9.92401121 8.44042156,6 15,6 C16.1572583,6 17.2791986,6.12213468 18.3471401,6.35131575 C18.7075428,5.96942004 19.2153046,5.61320842 19.2153046,5.61320842 C19.6486799,5.27454276 20.4509752,4.99999999 20.990778,5 L24.0020869,5 C25.1055038,5 25.4774399,5.73423004 24.8658286,6.65826499 C24.8658286,6.65826499 24.1764152,7.52352318 23.6357229,8.65132913 C24.9647372,9.60596524 26.0496491,10.777484 26.8053525,12.0971458 C27.025541,12.0338854 27.2585377,12 27.5,12 C28.8807119,12 30,13.1123657 30,14.5093004 L30,17.4906996 C30,18.876548 28.8903379,20 27.5,20 C27.4207544,20 27.34237,19.9963357 27.265009,19.9891636 C26.5784587,21.5635729 25.4403699,22.9660455 23.9763221,24.0951517 C23.9919602,24.2297111 24,24.3666091 24,24.5054058 L24,26.4945942 C24,28.4305764 22.4290634,30 20.5,30 C18.6948846,30 17.2089383,28.6328843 17.0202274,26.8739709 L17.0202274,26.8739709 Z M15.8683165,5.02175855 C15.9542365,4.69559895 16,4.35314379 16,4 C16,1.790861 14.209139,0 12,0 C9.790861,0 8,1.790861 8,4 C8,4.82773519 8.25141931,5.59674825 8.68205684,6.2348381 C10.5801077,5.44504025 12.7267831,5 15,5 C15.2916071,5 15.5811318,5.00732341 15.8683165,5.02175855 L15.8683165,5.02175855 Z M19.5,16 C20.3284271,16 21,15.3284271 21,14.5 C21,13.6715729 20.3284271,13 19.5,13 C18.6715729,13 18,13.6715729 18,14.5 C18,15.3284271 18.6715729,16 19.5,16 Z" id="Combined-Shape"></path>
        </g>
    </g>
</svg>

<?xml version="1.0" encoding="UTF-8" standalone="no"?>
<svg width="30" height="30" viewBox="0 0 30 30" xmlns="http://www.w3.org/2000/svg">
  <path d="M17.02 26.874a16.158 16.158 0 0 1-3.052.093A3.506 3.506 0 0 1 10.5 30 3.502 3.502 0 0 1 7 26.495v-1.718c-2.723-1.72-4.576-4.297-4.936-7.229L.8 16.6C.358 16.269 0 15.556 0 15c0-.552.395-.785.883-.526 0 0 .776.44 1.117.526.039.01.082.018.127.024C3.016 9.924 8.44 6 15 6c1.157 0 2.28.122 3.347.351.36-.382.868-.738.868-.738C19.65 5.275 20.451 5 20.991 5h3.011c1.104 0 1.475.734.864 1.658 0 0-.69.866-1.23 1.993 1.329.955 2.414 2.126 3.17 3.446A2.498 2.498 0 0 1 30 14.51l-.001 2.982a2.499 2.499 0 0 1-2.735 2.498c-.687 1.575-1.825 2.977-3.289 4.106.016.135.024.272.024.41v1.99A3.505 3.505 0 0 1 20.5 30a3.501 3.501 0 0 1-3.48-3.126zM15.868 5.022a4 4 0 1 0-7.186 1.213C10.58 5.445 12.727 5 15 5c.292 0 .581.007.868.022zM19.5 16a1.5 1.5 0 1 0 0-3 1.5 1.5 0 0 0 0 3z" fill="#050505" fill-rule="evenodd"/>
</svg>
